X: 36744
T: Sheik Billy
R: reel
M: 4/4
K: Dmajor
|:A3 d =cBcA|dcdf eceg|fdge afge|faea dcAe|
(3ded FA dff2|afbf afdg|e=cc2 eage|1 dgec d3 B:|2 dgec d2(3efg||
|:abag fdAg|ecAe dAFd|BGG2 DGG2|Bdaf gfd=c|
A2 de (3=fgf eg|=fed=c AG (3FGA|dAaA FAdA|1 FAGE D3 a:|2 FAGE D4||

